X:2
T:Auvergne Polka 2
M:2/2
L:1/8
Z: Contributed 2017-06-04 12:22:57 by Peter Jenner p_jenner@btinternet.com
K:G
D2 EF G2 G2|FGAF G4|ABcA B2 G2|ABcA B2 G2|
D2 EF G2 G2|FGAF G4|ABcA B2 d2|dcBA G4:||
d2 B2 GBdB|GBdB c2 A2|c2 A2 FAcA|FAcA B2 G2|
d2 B2 GBdB|GBdB c2 A2|c2 A2 FAcA|FDEF G4:||


 Posted by  Reasonably Accurate Melodeonist     at  08:25
